icons/evolvere-blue-folders-flat-vivid-dark-fallback/apps/64/gtk-youtube-viewer.svg

<?xml version="1.0" encoding="UTF-8" standalone="no"?>
<!-- Created with Inkscape (http://www.inkscape.org/) -->

<svg
   xmlns:dc="http://purl.org/dc/elements/1.1/"
   xmlns:cc="http://creativecommons.org/ns#"
   xmlns:rdf="http://www.w3.org/1999/02/22-rdf-syntax-ns#"
   xmlns:svg="http://www.w3.org/2000/svg"
   xmlns="http://www.w3.org/2000/svg"
   xmlns:xlink="http://www.w3.org/1999/xlink"
   xmlns:sodipodi="http://sodipodi.sourceforge.net/DTD/sodipodi-0.dtd"
   xmlns:inkscape="http://www.inkscape.org/namespaces/inkscape"
   width="64"
   height="64"
   id="svg13094"
   version="1.1"
   inkscape:version="0.48.4 r9939"
   sodipodi:docname="gtk-youtube-viewer.svg">
  <sodipodi:namedview
     id="base"
     pagecolor="#cbcdd6"
     bordercolor="#666666"
     borderopacity="1.0"
     inkscape:pageopacity="1"
     inkscape:pageshadow="2"
     inkscape:zoom="11.313708"
     inkscape:cx="25.625694"
     inkscape:cy="31.69946"
     inkscape:document-units="px"
     inkscape:current-layer="svg13094"
     showgrid="true"
     inkscape:snap-bbox="true"
     inkscape:bbox-paths="true"
     inkscape:bbox-nodes="true"
     inkscape:snap-bbox-edge-midpoints="true"
     inkscape:snap-bbox-midpoints="true"
     inkscape:object-paths="true"
     inkscape:snap-intersection-paths="true"
     inkscape:object-nodes="true"
     inkscape:snap-smooth-nodes="true"
     inkscape:snap-midpoints="true"
     inkscape:snap-object-midpoints="true"
     inkscape:snap-center="true"
     showguides="true"
     inkscape:guide-bbox="true"
     inkscape:window-width="1920"
     inkscape:window-height="1025"
     inkscape:window-x="-2"
     inkscape:window-y="32"
     inkscape:window-maximized="1"
     inkscape:snap-global="true"
     fit-margin-top="0"
     fit-margin-left="0"
     fit-margin-right="0"
     fit-margin-bottom="0"
     showborder="true"
     inkscape:showpageshadow="false"
     inkscape:snap-page="true">
    <inkscape:grid
       type="xygrid"
       id="grid3075"
       empspacing="5"
       visible="true"
       enabled="true"
       snapvisiblegridlinesonly="true"
       originx="1.6362304e-08px"
       originy="18px" />
  </sodipodi:namedview>
  <defs
     id="defs13096">
    <linearGradient
       id="linearGradient3874-9-1">
      <stop
         style="stop-color:#ffffff;stop-opacity:0.66709763;"
         offset="0"
         id="stop3876-6-0" />
      <stop
         style="stop-color:#ffffff;stop-opacity:0.45184228;"
         offset="1"
         id="stop3878-6-3" />
    </linearGradient>
    <radialGradient
       inkscape:collect="always"
       xlink:href="#linearGradient3874-9-1"
       id="radialGradient3943"
       gradientUnits="userSpaceOnUse"
       gradientTransform="matrix(0,4.6111719,-4.6439249,0,103.72683,-135.5575)"
       cx="32"
       cy="15.445303"
       fx="32"
       fy="15.445303"
       r="21.398926" />
    <linearGradient
       inkscape:collect="always"
       id="linearGradient4842-5">
      <stop
         style="stop-color:#ffffff;stop-opacity:0.63652641"
         offset="0"
         id="stop4844-9" />
      <stop
         id="stop4850-8"
         offset="0.47900829"
         style="stop-color:#ffffff;stop-opacity:0.19874664" />
      <stop
         style="stop-color:#ffffff;stop-opacity:0;"
         offset="1"
         id="stop4846-0" />
    </linearGradient>
    <radialGradient
       r="13"
       fy="19"
       fx="12"
       cy="19"
       cx="12"
       gradientUnits="userSpaceOnUse"
       id="radialGradient4872"
       xlink:href="#linearGradient4842-5"
       inkscape:collect="always" />
    <linearGradient
       inkscape:collect="always"
       id="linearGradient4842-55">
      <stop
         style="stop-color:#ffffff;stop-opacity:0.63652641"
         offset="0"
         id="stop4844-8" />
      <stop
         id="stop4850-6"
         offset="0.47900829"
         style="stop-color:#ffffff;stop-opacity:0.19874664" />
      <stop
         style="stop-color:#ffffff;stop-opacity:0;"
         offset="1"
         id="stop4846-5" />
    </linearGradient>
    <radialGradient
       r="13"
       fy="19"
       fx="12"
       cy="19"
       cx="12"
       gradientUnits="userSpaceOnUse"
       id="radialGradient4909"
       xlink:href="#linearGradient4842-55"
       inkscape:collect="always" />
    <linearGradient
       id="linearGradient4291-1">
      <stop
         style="stop-color:#dc2e31;stop-opacity:1;"
         offset="0"
         id="stop4293-4" />
      <stop
         style="stop-color:#bb2f33;stop-opacity:1;"
         offset="1"
         id="stop4295-9" />
    </linearGradient>
    <radialGradient
       r="13"
       fy="19"
       fx="12"
       cy="19"
       cx="12"
       gradientUnits="userSpaceOnUse"
       id="radialGradient3077"
       xlink:href="#linearGradient4842-55-7"
       inkscape:collect="always" />
    <linearGradient
       inkscape:collect="always"
       id="linearGradient4842-55-7">
      <stop
         style="stop-color:#ffffff;stop-opacity:0.63652641"
         offset="0"
         id="stop4844-8-6" />
      <stop
         id="stop4850-6-4"
         offset="0.47900829"
         style="stop-color:#ffffff;stop-opacity:0.19874664" />
      <stop
         style="stop-color:#ffffff;stop-opacity:0;"
         offset="1"
         id="stop4846-5-6" />
    </linearGradient>
  </defs>
  <metadata
     id="metadata13099">
    <rdf:RDF>
      <cc:Work
         rdf:about="">
        <dc:format>image/svg+xml</dc:format>
        <dc:type
           rdf:resource="http://purl.org/dc/dcmitype/StillImage" />
        <dc:title />
      </cc:Work>
    </rdf:RDF>
  </metadata>
  <path
     inkscape:connector-curvature="0"
     style="color:#000000;fill:#d13438;fill-opacity:1;fill-rule:nonzero;stroke:none;stroke-width:2.28571415;marker:none;visibility:visible;display:inline;overflow:visible;enable-background:accumulate"
     d="m 0,4 0,30 0,28 2,2 30,0 30,0 2,-2 L 64,34 64,4 32,4 0,4 z"
     id="path4095" />
  <path
     inkscape:connector-curvature="0"
     style="color:#000000;fill:#ff6779;fill-opacity:1;fill-rule:nonzero;stroke:none;stroke-width:2.28571415;marker:none;visibility:visible;display:inline;overflow:visible;enable-background:accumulate"
     d="M 2,0 0,1 0,4 32,4 64,4 64,1 62,0 32,0 2,0 z"
     id="path4090" />
  <path
     style="fill:#ff8796;fill-opacity:1;fill-rule:nonzero"
     d="M 0,3 0,6 2,4 z"
     id="path4298"
     inkscape:connector-curvature="0"
     sodipodi:nodetypes="cccc" />
  <path
     d="M 64,6 62,4 64,3 z"
     id="path3028"
     style="fill:#e84d58;fill-opacity:1"
     inkscape:connector-curvature="0" />
  <g
     id="g3043"
     inkscape:export-filename="folder.png"
     inkscape:export-xdpi="90"
     inkscape:export-ydpi="90"
     transform="translate(-0.62500009,0.082283)" />
  <g
     id="scalable"
     transform="matrix(1.0385892,0,0,1.0385892,1214.7222,1878.8121)"
     inkscape:label="#g3701"
     style="fill:#ffffff" />
  <path
     style="fill:#8f1e20;fill-opacity:0.34198746;fill-rule:evenodd"
     d="M 40.125 4.9375 C 39.420417 4.9707256 38.721995 5.1587883 38.0625 5.625 C 37.46208 6.0494853 37.249961 6.849944 36.71875 7.28125 C 36.268589 7.646757 35.887753 7.5371323 35.375 7.90625 C 33.82751 9.0206241 33.680688 10.664389 36.34375 10.15625 C 35.224364 14.800513 29.798357 27.26905 23.71875 20.8125 C 20.881356 17.799175 18.25465 14.478642 15.5625 11.34375 C 13.197939 8.5904127 11.84812 5.467989 7.8125 6 C 4.6964519 6.410864 2.3516677 8.1954445 0 10.03125 L 0 34 L 0 39.15625 C 0.022496501 39.125691 0.039737811 39.092853 0.0625 39.0625 C 0.69441143 38.21955 0.47446919 37.434424 1.375 37.34375 C 1.812926 37.29962 2.9595867 38.181322 3.34375 38.4375 C 4.4525073 39.176941 5.7711021 39.534233 6.84375 40.25 C 7.3922088 40.616109 8.4242371 40.334031 8.875 40.6875 C 10.173534 41.705382 9.8842084 44.856066 9.75 46.46875 C 9.5578161 48.775131 7.71875 49.496018 7.71875 51.71875 C 7.71875 54.394051 8.2748355 56.200814 7.4375 58.9375 C 6.9538355 60.518289 5.7354704 62.333044 5.53125 63.9375 C 5.5277504 63.964984 5.5343774 63.973717 5.53125 64 L 9 64 C 9.2501638 61.30028 11.125278 57.473465 11.96875 55.96875 C 12.562749 54.908939 13.697305 54.070238 14.125 53 C 14.700741 51.559036 13.535798 50.567078 13.71875 49.46875 C 14.078038 47.311215 14.976391 45.041827 15.65625 42.96875 C 17.236033 38.150964 19.455217 45.442685 20.375 47.28125 C 20.737901 48.006448 20.974831 48.824664 21.34375 49.5625 C 21.780071 50.435144 20.837572 51.196565 21.09375 52.28125 C 21.334677 53.300938 22.505878 53.861686 23.15625 54.625 C 24.149858 55.791129 24.839179 57.258577 25.375 58.6875 C 25.916712 60.131836 26.309309 62.087172 26.78125 64 L 30.75 64 C 30.357772 63.548801 29.984877 63.061853 29.65625 62.5625 C 27.890704 59.879578 27.532545 56.85641 27.1875 53.75 C 27.021598 52.254877 28.616387 51.540421 27.21875 49.75 C 26.771197 49.176463 25.4375 49.246838 25.4375 48.65625 C 25.4375 46.791806 25.38033 44.925742 25.4375 43.0625 C 25.50671 40.810882 25.471487 37.061751 27.625 35.625 C 30.492888 33.712206 34.162139 33.214683 36.90625 31.15625 C 39.632708 29.111258 42.138472 27.252493 43.78125 23.96875 C 44.636239 22.259373 45.068333 20.60729 45.75 18.84375 C 46.251316 17.546622 46.123237 17.986676 46.9375 17.21875 C 47.411738 16.771596 48.12905 16.44263 48.65625 15.9375 C 50.047463 14.604463 50.295144 13.319116 52.625 13.875 C 53.550405 14.095869 55.064548 15.839655 55.59375 14.78125 C 55.931774 14.106006 55.734816 13.468731 55.5625 12.78125 C 55.305919 11.756747 56.533905 11.426695 56.5 10.4375 C 56.442228 8.7509931 53.727783 6.9705569 52.3125 6.6875 C 50.518461 6.3288139 48.554197 7.0816489 46.65625 6.71875 C 45.123605 6.4258631 43.784555 5.5868646 42.3125 5.21875 C 41.543068 5.0262671 40.829583 4.9042744 40.125 4.9375 z "
     id="path5" />
  <g
     id="g3028-8">
    <path
       d="m 37.78969,34.083745 -10e-4,-7.3e-4 1.43901,-0.74559 -1.43791,0.74631"
       style="color:#000000;fill:#ffffff;fill-opacity:0.6784452;fill-rule:nonzero;stroke:none;marker:none;visibility:visible;display:inline;overflow:visible;enable-background:accumulate"
       id="path16-6"
       inkscape:connector-curvature="0" />
    <path
       id="path3941-6"
       d="M 32,21 C 28.981804,21 17.931167,21.270678 15.90625,22.863282 14.094988,24.287844 14,27.63512 14,34 c 0,6.36488 0.09498,9.712156 1.90625,11.136718 C 17.931167,46.729322 28.981804,47 32,47 35.018196,47 46.068832,46.729322 48.09375,45.136718 49.90502,43.712156 50,40.36488 50,34 50,27.63512 49.90502,24.287844 48.09375,22.863282 46.068832,21.270678 35.018196,21 32,21 z m -4,8 10,5 -10,5 0,-10 z"
       style="color:#000000;fill:#ffffff;fill-opacity:0.89266542999999998;fill-rule:nonzero;stroke:none;stroke-width:1;marker:none;visibility:visible;display:inline;overflow:visible;enable-background:accumulate"
       inkscape:connector-curvature="0" />
  </g>
</svg>

<svg xmlns="http://www.w3.org/2000/svg" viewBox="0 0 64 64"><g color="#000"><path d="m0 4v30 28l2 2h30 30l2-2v-28-30h-32-32" fill="#d13438"/><path d="m2 0l-2 1v3h32 32v-3l-2-1h-30-30" fill="#ff6779"/></g><path d="m0 3v3l2-2z" fill="#ff8796"/><path d="m64 6l-2-2 2-1z" fill="#e84d58"/><path d="m40.13 4.938c-.705.033-1.403.221-2.063.688-.6.424-.813 1.225-1.344 1.656-.45.366-.831.256-1.344.625-1.547 1.114-1.694 2.758.969 2.25-1.119 4.644-6.545 17.11-12.625 10.656-2.837-3.01-5.464-6.334-8.156-9.469-2.365-2.753-3.714-5.876-7.75-5.344-3.116.411-5.461 2.195-7.813 4.03v23.969 5.156c.022-.031.04-.063.063-.094.632-.843.412-1.628 1.313-1.719.438-.044 1.585.838 1.969 1.094 1.109.739 2.427 1.097 3.5 1.813.548.366 1.58.084 2.031.438 1.299 1.018 1.01 4.169.875 5.781-.192 2.306-2.031 3.03-2.031 5.25 0 2.675.556 4.482-.281 7.219-.484 1.581-1.702 3.396-1.906 5-.003.027.003.036 0 .063h3.469c.25-2.7 2.125-6.527 2.969-8.03.594-1.06 1.729-1.899 2.156-2.969.576-1.441-.589-2.433-.406-3.531.359-2.158 1.258-4.427 1.938-6.5 1.58-4.818 3.799 2.474 4.719 4.313.363.725.6 1.543.969 2.281.436.873-.506 1.634-.25 2.719.241 1.02 1.412 1.58 2.063 2.344.994 1.166 1.683 2.634 2.219 4.063.542 1.444.934 3.4 1.406 5.313h3.969c-.392-.451-.765-.938-1.094-1.438-1.766-2.683-2.124-5.706-2.469-8.813-.166-1.495 1.429-2.21.031-4-.448-.574-1.781-.503-1.781-1.094 0-1.864-.057-3.731 0-5.594.069-2.252.034-6 2.188-7.438 2.868-1.913 6.537-2.41 9.281-4.469 2.726-2.045 5.232-3.904 6.875-7.188.855-1.709 1.287-3.361 1.969-5.125.501-1.297.373-.857 1.188-1.625.474-.447 1.192-.776 1.719-1.281 1.391-1.333 1.639-2.618 3.969-2.063.925.221 2.44 1.965 2.969.906.338-.675.141-1.313-.031-2-.257-1.025.971-1.355.938-2.344-.058-1.687-2.772-3.467-4.188-3.75-1.794-.359-3.758.394-5.656.031-1.533-.293-2.872-1.132-4.344-1.5-.769-.192-1.483-.314-2.188-.281" fill="#8f1e20" fill-rule="evenodd" fill-opacity=".342"/><g fill="#fff" color="#000"><path d="m37.79 34.08l1.438-.746-1.438.746" fill-opacity=".678"/><path d="m32 21c-3.02 0-14.07.271-16.09 1.863-1.811 1.425-1.906 4.772-1.906 11.137 0 6.365.095 9.712 1.906 11.137 2.025 1.593 13.08 1.863 16.09 1.863 3.02 0 14.07-.271 16.09-1.863 1.811-1.425 1.906-4.772 1.906-11.137 0-6.365-.095-9.712-1.906-11.137-2.025-1.593-13.08-1.863-16.09-1.863m-4 8l10 5-10 5v-10" fill-opacity=".893"/></g></svg>
